X:1
T:A prey to want, oppressed with wrong
T:A prey to want, oppressed with wrong (Richard Sampson)
C:Richard Sampson
Z:Text: James Merrick,
Z:on Ps. 35, vv 5-6
%%score [ 1 2 3 ]
L:1/8
M:4/4
K:Bmin
V:1 treble nm="Soprano" snm="S."
V:2 treble nm="Alto" snm="A."
V:3 bass nm="Bass" snm="B."
V:1
"^Moderately quick" (f/e/) | d2 (cB) B2 ^A2 | B2 (cB) ^A3 A | B2 e2 (de)(fg) | d2 c2 B2 z A | %5
w: A _|prey to _ want, op-|press’d with _ wrong, A-|while I pin’d; _ a *|hos- tile throng, Whose|
w: While _|sick- ness _ wrapt them|in its _ chain, And|fix’d them on _ the _|bed of pain, My|
 d2 f2 e3 f | d2 (ed) c3 c | f2 e2 d3 ^d | e2 d2 c3 e | a2 g2 (f>e d)g | f2 e2 d2 z d | %11
w: tongue to fraud has|loos’d the _ reins, And|lie with lie con-|nect- ed feigns, and|lie with lie _ _ con-|nect- ed feigns, A-|
w: heart, that no af-|fec- tion _ ow’d, With|sym- pa- thi- zing|pi- ty glow’d, with|sym- pa- thi- * * zing|pi- ty glow’d; I|
 f2 (ed) g2 (fg) | d3 e =c3 d | B3 =c (AB)(GF) | G2 F2 E2 B2 | =c2 d2 e2 f2 | g2 a2 d2 (gd) | %17
w: gainst me _ urg’d, to _|scan- dal prone, The|guilt my breast _ had _|ne- ver known; And|left me help- less|and for- lorn, The _|
w: knew their _ suff- ’rings _|to be- wail; And,|sunk with grief, _ with _|fast- ing pale, To|God, in sor- row’s|garb ar- ray’d, With _|
 (ed)(=cB) A2 d2 | =c2 B2 A2 z A | d2 (=cB) (dc)(BA) | B2 (^cB) ^A2 B2 | e3 f (dg)(fe) | %22
w: friend- * ship _ ill re-|paid to mourn, That,|when af- * flic- * tion’s _|weight they _ bare, Had|taught my heart _ their _|
w: hum- * blest _ in- ter-|cess- ion pray’d; And|found the _ pray’r _ their _|pride has _ spurn’d With|bless- ings on _ my _|
 d2 c2 B2 |] %23
w: woes to share.|
w: head re- turn’d.|
V:2
 (d/c/) | (BF)(ED) (CG)(FE) | D2 E2 F3 F | F2 (^G^A) B2 B2 | B2 ^A2 B2 z F | A2 d2 (d2 c)^A | %6
w: A _|prey _ to _ want, _ op- *|press’d with wrong, A-|while I _ pin’d; a|hos- tile throng, Whose|tongue to fraud _ has|
w: While _|sick- * ness _ wrapt _ them _|in its chain, And|fix’d them _ on the|bed of pain, My|heart, that no _ af-|
 B2 (cB) ^A2 A2 | (BF)(^G^A) (BF)(B=A) | (^GE)(FG) A3 c | (dA)(Bc) (d>c B)e | d2 c2 d2 z F | %11
w: loos’d the _ reins, And|lie _ with _ lie _ con- *|nect- * ed _ feigns, and|lie _ with _ lie _ _ con-|nect- ed feigns, A-|
w: fec- tion _ ow’d, With|sym- * pa- * thi- * zing _|pi- * ty _ glow’d, with|sym- * pa- * thi- * * zing|pi- ty glow’d; I|
 A2 (GF) d2 (=cB) | A2 B2 G2 A2 | F2 (GE) ^D2 E2 | E2 ^D2 E2 G2 | F2 G2 (3(G=cB) (3(Adc) | %16
w: gainst me _ urg’d, to _|scan- dal prone, The|guilt my _ breast had|ne- ver known; And|left me help- * * less _ _|
w: knew their _ suff- ’rings _|to be- wail; And,|sunk with _ grief, with|fast- ing pale, To|God, in sor- * * row’s _ _|
 (B^c)(d=c) B2 B2 | (=cB)(AG) F2 G2 | (EF) G2 F2 z F | (FB)(A^G) A2 (=GF) | G2 G2 F2 F2 | %21
w: and _ for- * lorn, The|friend- * ship _ ill re-|paid _ to mourn, That,|when _ af- * flic- tion’s _|weight they bare, Had|
w: garb _ ar- * ray’d, With|hum- * blest _ in- ter-|cess- * ion pray’d; And|found _ the _ pray’r their _|pride has spurn’d With|
 ^G2 ^A2 (BA)(Bc) | B2 ^A2 B2 |] %23
w: taught my heart _ their _|woes to share.|
w: bless- ings on _ my _|head re- turn’d.|
V:3
 B,, | (B,,D,)(E,^E,) F,2 F,,2 | G,,2 G,,2 F,,3 E, | D,2 C,2 (B,,C,)(D,E,) | F,2 F,,2 B,,2 z D, | %5
w: A|prey _ to _ want, op-|press’d with wrong, A-|while I pin’d; _ a _|hos- tile throng, Whose|
w: While|sick- * ness _ wrapt them|in its chain, And|fix’d them on _ the _|bed of pain, My|
 F,2 D,2 (A,2 ^A,)F, | B,2 E,2 F,3 E, | D,2 C,2 B,,3 B,, | E,2 E,2 (A,B,A,)G, | %9
w: tongue to fraud _ has|loos’d the reins, And|lie with lie con-|nect- ed feigns, _ _ and|
w: heart, that no _ af-|fec- tion ow’d, With|sym- pa- thi- zing|pi- ty glow’d, _ _ with|
 F,2 E,2 (D,A,,B,,)G,, | A,,2 A,,2 D,2 z D, | D,3 (D/=C/) B,2 (A,G,) | F,2 G,2 E,2 F,2 | %13
w: lie with lie _ _ con-|nect- ed feigns, A-|gainst me _ urg’d, to _|scan- dal prone, The|
w: sym- pa- thi- * * zing|pi- ty glow’d; I|knew their _ suff- ’rings _|to be- wail; And,|
 ^D,2 (E,A,,) B,,2 (=C,A,,) | B,,2 B,,2 E,2 G,,2 | A,,2 B,,2 =C,2 D,2 | E,2 F,2 G,2 G,2 | %17
w: guilt my _ breast had _|ne- ver known; And|left me help- less|and for- lorn, The|
w: sunk with _ grief, with _|fast- ing pale, To|God, in sor- row’s|garb ar- ray’d, With|
 G,2 =C,2 C,2 B,,2 | A,,2 G,,2 D,2 z =C, | B,,2 E,2 A,,2 D,2 | %20
w: friend- ship ill re-|paid to mourn, That,|when af- flic- tion’s|
w: hum- blest in- ter-|cess- ion pray’d; And|found the pray’r their|
"^Notes:This setting is attributed in the source to 'Rd. Sampson [/] Organist of St. Jhons [sic] Wakefield'.Both verses are underlaid in the source.The D on the first half of beat 3 in bar 19, given here as a quaver, is printed in the source as a small quavergrace note slurred to a full-sized crotchet C#." G,2 E,2 E,2 D,2 | %21
w: weight they bare, Had|
w: pride has spurn’d With|
 C,2 F,2 (B,,C,)(D,E,) | F,2 F,,2 B,,2 |] %23
w: taught my heart _ their _|woes to share.|
w: bless- ings on _ my _|head re- turn’d.|

